X:4
T:Allewander (Alewander)  GC (5letras transposed)
%%MIDI program 21
R:alewander
M:2/4
L:1/8
K:G transpose=3 %%MIDI gchordon
B | "G"B>D D>B | B>D D>B | Bc ^cd | e2 dA | "D7"A>D D>A | A>D DA | AB c^c | "G"e2dB | 
B>D DB | B>D DB | "A7"B^c de | "D"f2 Ad | "A7"^c>B c>B | "D"B>A e>d | "A7"^cB GE | "D"D2zd || 
"D7"d>A Ad | "G"d>B Be | "E7"e>B Be | "Am"e>c ce | !>!"D7"d2 ^c/2d/2e/2f/2 | ("G"gf) .g.B | {/e}"D7"d^c d"_#"F | {/c}"G"B^A BG | !>!"D7"d2 ^c/2d/2e/2f/2 | 
("G"gf) .g.B | {/e}"D7"d^c .d.F | "G"GG Gz |: [K:C] "C"E2E2 | E2AG | "G7"G>F FF | FD FG | B2B2 | B2AG | 
"C"e>c cc | c2EF | G2G2 | G2c>B | "F"A2A2 | Af ed | "C/G"c2c2 | "G7"Bc/2B/2 AB | "C"c2c2 |1 c2 G>F :|2 c2z2 |] 
% AL05857

